X:63
T:I went to my true love - Woolrich
C:Taken down from J. Woodrich by F.W.B.  
%%VWML:SBG-1-1-303-0
F:http://www.vwml.org/record/SBG/1/1/303
Z:Original Sibleius Transcription by Martin and Shan Graebe
L:1/8
M:4/4
I:linebreak $
K:D
FG | A2 FG A2 Bc | d3 e dc B2 | A3 F D2 D2 | E6 DE | F3 E DE FG |$ A3 F G2 A2 | B3 G F2 E | 
D6 F^G | A2 F^G AB cd | e3 f e2 A^G |$ F2 dc B3 c | A6 A2 | d3 e dc B2 | A3 F A2 ^A2 | 
cB AG F2 A,2 | D6  |] 



